agir/front/components/genericComponents/logos/action-populaire_small.svg

<svg width="183" height="36" viewBox="0 0 183 36" fill="none" xmlns="http://www.w3.org/2000/svg">
<path d="M38.9679 22.4992H34.2725L33.5198 24.7155H30.3119L34.8639 12.1684H38.4124L42.9644 24.7155H39.7206L38.9679 22.4992ZM38.1794 20.1399L36.6202 15.5465L35.079 20.1399H38.1794Z" fill="#000A2C"/>
<path d="M43.7405 19.7289C43.7405 18.6922 43.9496 17.7866 44.3677 17.0121C44.7978 16.2376 45.3892 15.6418 46.1419 15.2248C46.9066 14.8077 47.7788 14.5992 48.7585 14.5992C50.013 14.5992 51.0584 14.9269 51.8947 15.5822C52.743 16.2376 53.2985 17.1611 53.5614 18.3526H50.2997C50.0249 17.59 49.4932 17.2087 48.7047 17.2087C48.1432 17.2087 47.6951 17.4292 47.3606 17.87C47.0261 18.299 46.8588 18.9186 46.8588 19.7289C46.8588 20.5391 47.0261 21.1647 47.3606 21.6056C47.6951 22.0345 48.1432 22.249 48.7047 22.249C49.4932 22.249 50.0249 21.8677 50.2997 21.1051H53.5614C53.2985 22.2728 52.743 23.1903 51.8947 23.8576C51.0464 24.5249 50.001 24.8585 48.7585 24.8585C47.7788 24.8585 46.9066 24.65 46.1419 24.2329C45.3892 23.8159 44.7978 23.2201 44.3677 22.4456C43.9496 21.6711 43.7405 20.7655 43.7405 19.7289Z" fill="#000A2C"/>
<path d="M60.7742 22.1239V24.7155H59.215C58.1039 24.7155 57.2377 24.4474 56.6164 23.9112C55.9952 23.3631 55.6845 22.4754 55.6845 21.2481V17.2802H54.4659V14.7422H55.6845V12.3114H58.7491V14.7422H60.7563V17.2802H58.7491V21.2838C58.7491 21.5817 58.8208 21.7962 58.9641 21.9273C59.1075 22.0583 59.3465 22.1239 59.681 22.1239H60.7742Z" fill="#000A2C"/>
<path d="M64.0224 13.7055C63.4848 13.7055 63.0427 13.5506 62.6963 13.2408C62.3617 12.9191 62.1945 12.5259 62.1945 12.0612C62.1945 11.5846 62.3617 11.1914 62.6963 10.8816C63.0427 10.5598 63.4848 10.399 64.0224 10.399C64.5481 10.399 64.9783 10.5598 65.3128 10.8816C65.6593 11.1914 65.8325 11.5846 65.8325 12.0612C65.8325 12.5259 65.6593 12.9191 65.3128 13.2408C64.9783 13.5506 64.5481 13.7055 64.0224 13.7055ZM65.5458 14.7422V24.7155H62.4812V14.7422H65.5458Z" fill="#000A2C"/>
<path d="M72.3186 24.8585C71.3389 24.8585 70.4548 24.65 69.6663 24.2329C68.8897 23.8159 68.2744 23.2201 67.8204 22.4456C67.3783 21.6711 67.1573 20.7655 67.1573 19.7289C67.1573 18.7041 67.3843 17.8045 67.8383 17.03C68.2923 16.2436 68.9136 15.6418 69.7021 15.2248C70.4907 14.8077 71.3748 14.5992 72.3545 14.5992C73.3342 14.5992 74.2183 14.8077 75.0069 15.2248C75.7954 15.6418 76.4167 16.2436 76.8707 17.03C77.3247 17.8045 77.5517 18.7041 77.5517 19.7289C77.5517 20.7536 77.3187 21.6592 76.8528 22.4456C76.3988 23.2201 75.7715 23.8159 74.971 24.2329C74.1825 24.65 73.2984 24.8585 72.3186 24.8585ZM72.3186 22.2132C72.9041 22.2132 73.3999 21.9988 73.8061 21.5698C74.2243 21.1408 74.4334 20.5272 74.4334 19.7289C74.4334 18.9305 74.2303 18.3169 73.824 17.8879C73.4298 17.4589 72.9399 17.2445 72.3545 17.2445C71.7571 17.2445 71.2613 17.4589 70.867 17.8879C70.4727 18.3049 70.2756 18.9186 70.2756 19.7289C70.2756 20.5272 70.4668 21.1408 70.8491 21.5698C71.2434 21.9988 71.7332 22.2132 72.3186 22.2132Z" fill="#000A2C"/>
<path d="M85.2708 14.635C86.4416 14.635 87.3736 15.0163 88.0665 15.7789C88.7714 16.5295 89.1239 17.5662 89.1239 18.8888V24.7155H86.0772V19.2999C86.0772 18.6326 85.904 18.1143 85.5575 17.7449C85.211 17.3755 84.7451 17.1908 84.1597 17.1908C83.5742 17.1908 83.1083 17.3755 82.7618 17.7449C82.4153 18.1143 82.2421 18.6326 82.2421 19.2999V24.7155H79.1775V14.7422H82.2421V16.0648C82.5527 15.624 82.9709 15.2784 83.4966 15.0282C84.0223 14.766 84.6137 14.635 85.2708 14.635Z" fill="#000A2C"/>
<path d="M14.239 33.1291L7.88422 26.7913C4.37457 23.2911 4.34703 17.6435 7.82271 14.1772V14.1772C11.2984 10.7108 16.9611 10.7383 20.4708 14.2385V14.2385C23.9804 17.7388 24.008 23.3863 20.5323 26.8527L14.239 33.1291Z" fill="#F4ED0F"/>
<path fill-rule="evenodd" clip-rule="evenodd" d="M4.7215 22.2406L9.73669 27.2424L14.7519 22.2406C17.5217 19.4783 17.5217 14.9995 14.7519 12.2372C11.9821 9.47477 7.49131 9.47477 4.7215 12.2372C1.95168 14.9995 1.95168 19.4783 4.7215 22.2406ZM9.73669 30.2657L16.2676 23.7523C19.8745 20.155 19.8745 14.3228 16.2676 10.7255C12.6607 7.12827 6.8127 7.12827 3.20578 10.7255C-0.401137 14.3228 -0.401138 20.155 3.20578 23.7523L9.73669 30.2657Z" fill="#000A2C"/>
<path d="M105.519 16.3846C105.519 17.1114 105.352 17.7787 105.017 18.3864C104.683 18.9822 104.169 19.4647 103.476 19.8341C102.783 20.2035 101.923 20.3882 100.895 20.3882H98.9957V24.8923H95.9312V12.3452H100.895C101.899 12.3452 102.747 12.518 103.44 12.8635C104.133 13.2091 104.653 13.6857 104.999 14.2934C105.346 14.9011 105.519 15.5981 105.519 16.3846ZM100.662 17.9574C101.248 17.9574 101.684 17.8204 101.971 17.5463C102.257 17.2723 102.401 16.885 102.401 16.3846C102.401 15.8841 102.257 15.4969 101.971 15.2228C101.684 14.9488 101.248 14.8117 100.662 14.8117H98.9957V17.9574H100.662Z" fill="#000A2C"/>
<path d="M111.667 25.0353C110.687 25.0353 109.803 24.8267 109.014 24.4097C108.238 23.9927 107.622 23.3969 107.168 22.6224C106.726 21.8479 106.505 20.9423 106.505 19.9056C106.505 18.8809 106.732 17.9813 107.186 17.2067C107.64 16.4203 108.261 15.8186 109.05 15.4015C109.839 14.9845 110.723 14.776 111.702 14.776C112.682 14.776 113.566 14.9845 114.355 15.4015C115.143 15.8186 115.765 16.4203 116.219 17.2067C116.673 17.9813 116.9 18.8809 116.9 19.9056C116.9 20.9304 116.667 21.8359 116.201 22.6224C115.747 23.3969 115.119 23.9927 114.319 24.4097C113.53 24.8267 112.646 25.0353 111.667 25.0353ZM111.667 22.39C112.252 22.39 112.748 22.1755 113.154 21.7466C113.572 21.3176 113.781 20.704 113.781 19.9056C113.781 19.1073 113.578 18.4936 113.172 18.0647C112.778 17.6357 112.288 17.4212 111.702 17.4212C111.105 17.4212 110.609 17.6357 110.215 18.0647C109.821 18.4817 109.624 19.0954 109.624 19.9056C109.624 20.704 109.815 21.3176 110.197 21.7466C110.591 22.1755 111.081 22.39 111.667 22.39Z" fill="#000A2C"/>
<path d="M121.59 16.331C121.889 15.8662 122.301 15.4909 122.827 15.2049C123.352 14.919 123.968 14.776 124.672 14.776C125.497 14.776 126.244 14.9845 126.913 15.4015C127.582 15.8186 128.107 16.4144 128.49 17.1889C128.884 17.9634 129.081 18.863 129.081 19.8877C129.081 20.9125 128.884 21.8181 128.49 22.6045C128.107 23.379 127.582 23.9807 126.913 24.4097C126.244 24.8267 125.497 25.0353 124.672 25.0353C123.979 25.0353 123.364 24.8923 122.827 24.6063C122.301 24.3203 121.889 23.9509 121.59 23.4982V29.6466H118.525V14.919H121.59V16.331ZM125.963 19.8877C125.963 19.1251 125.748 18.5294 125.318 18.1004C124.899 17.6595 124.38 17.4391 123.758 17.4391C123.149 17.4391 122.629 17.6595 122.199 18.1004C121.781 18.5413 121.572 19.143 121.572 19.9056C121.572 20.6682 121.781 21.2699 122.199 21.7108C122.629 22.1517 123.149 22.3721 123.758 22.3721C124.368 22.3721 124.888 22.1517 125.318 21.7108C125.748 21.258 125.963 20.6503 125.963 19.8877Z" fill="#000A2C"/>
<path d="M140.564 14.919V24.8923H137.499V23.5339C137.188 23.9748 136.764 24.3322 136.227 24.6063C135.701 24.8684 135.115 24.9995 134.47 24.9995C133.706 24.9995 133.031 24.8327 132.445 24.4991C131.86 24.1535 131.406 23.659 131.083 23.0156C130.761 22.3721 130.599 21.6155 130.599 20.7457V14.919H133.646V20.3346C133.646 21.0018 133.819 21.5202 134.166 21.8896C134.512 22.2589 134.978 22.4436 135.563 22.4436C136.161 22.4436 136.633 22.2589 136.979 21.8896C137.326 21.5202 137.499 21.0018 137.499 20.3346V14.919H140.564Z" fill="#000A2C"/>
<path d="M145.829 11.666V24.8923H142.765V11.666H145.829Z" fill="#000A2C"/>
<path d="M147.441 19.8877C147.441 18.863 147.632 17.9634 148.014 17.1889C148.409 16.4144 148.94 15.8186 149.609 15.4015C150.278 14.9845 151.025 14.776 151.85 14.776C152.554 14.776 153.17 14.919 153.695 15.2049C154.233 15.4909 154.645 15.8662 154.932 16.331V14.919H157.997V24.8923H154.932V23.4803C154.633 23.945 154.215 24.3203 153.678 24.6063C153.152 24.8923 152.537 25.0353 151.832 25.0353C151.019 25.0353 150.278 24.8267 149.609 24.4097C148.94 23.9807 148.409 23.379 148.014 22.6045C147.632 21.8181 147.441 20.9125 147.441 19.8877ZM154.932 19.9056C154.932 19.143 154.717 18.5413 154.287 18.1004C153.869 17.6595 153.355 17.4391 152.746 17.4391C152.136 17.4391 151.617 17.6595 151.186 18.1004C150.768 18.5294 150.559 19.1251 150.559 19.8877C150.559 20.6503 150.768 21.258 151.186 21.7108C151.617 22.1517 152.136 22.3721 152.746 22.3721C153.355 22.3721 153.869 22.1517 154.287 21.7108C154.717 21.2699 154.932 20.6682 154.932 19.9056Z" fill="#000A2C"/>
<path d="M161.755 13.8823C161.217 13.8823 160.775 13.7274 160.429 13.4176C160.094 13.0959 159.927 12.7027 159.927 12.238C159.927 11.7613 160.094 11.3681 160.429 11.0583C160.775 10.7366 161.217 10.5757 161.755 10.5757C162.281 10.5757 162.711 10.7366 163.045 11.0583C163.392 11.3681 163.565 11.7613 163.565 12.238C163.565 12.7027 163.392 13.0959 163.045 13.4176C162.711 13.7274 162.281 13.8823 161.755 13.8823ZM163.278 14.919V24.8923H160.214V14.919H163.278Z" fill="#000A2C"/>
<path d="M168.564 16.5812C168.922 16.0331 169.37 15.6041 169.908 15.2943C170.445 14.9726 171.043 14.8117 171.7 14.8117V18.0468H170.858C170.093 18.0468 169.519 18.2136 169.137 18.5472C168.755 18.869 168.564 19.4409 168.564 20.2631V24.8923H165.499V14.919H168.564V16.5812Z" fill="#000A2C"/>
<path d="M182.591 19.7448C182.591 20.0307 182.573 20.3286 182.538 20.6384H175.602C175.65 21.258 175.847 21.7347 176.193 22.0683C176.552 22.39 176.988 22.5509 177.502 22.5509C178.266 22.5509 178.798 22.2292 179.097 21.5857H182.358C182.191 22.2411 181.886 22.8309 181.444 23.3552C181.014 23.8795 180.471 24.2905 179.814 24.5884C179.156 24.8863 178.422 25.0353 177.609 25.0353C176.629 25.0353 175.757 24.8267 174.993 24.4097C174.228 23.9927 173.631 23.3969 173.201 22.6224C172.77 21.8479 172.555 20.9423 172.555 19.9056C172.555 18.869 172.764 17.9634 173.183 17.1889C173.613 16.4144 174.21 15.8186 174.975 15.4015C175.739 14.9845 176.618 14.776 177.609 14.776C178.577 14.776 179.437 14.9785 180.19 15.3837C180.943 15.7888 181.528 16.3667 181.946 17.1174C182.376 17.8681 182.591 18.7439 182.591 19.7448ZM179.455 18.9405C179.455 18.4162 179.276 17.9991 178.917 17.6893C178.559 17.3795 178.111 17.2246 177.573 17.2246C177.06 17.2246 176.624 17.3736 176.265 17.6715C175.919 17.9693 175.704 18.3923 175.62 18.9405H179.455Z" fill="#000A2C"/>
</svg>

<svg width="183" height="36" fill="none" xmlns="http://www.w3.org/2000/svg"><path d="M38.968 22.5h-4.696l-.752 2.215h-3.208l4.552-12.547h3.548l4.552 12.547h-3.243l-.753-2.216Zm-.789-2.36-1.559-4.594-1.541 4.594h3.1Zm5.561-.411c0-1.037.21-1.942.628-2.717a4.487 4.487 0 0 1 1.774-1.787c.765-.417 1.637-.626 2.616-.626 1.255 0 2.3.328 3.137.983.848.656 1.403 1.58 1.666 2.77H50.3c-.275-.762-.807-1.143-1.595-1.143-.562 0-1.01.22-1.344.661-.335.429-.502 1.049-.502 1.859s.167 1.436.502 1.877c.334.428.782.643 1.344.643.788 0 1.32-.381 1.595-1.144h3.261c-.263 1.168-.818 2.085-1.666 2.753-.849.667-1.894 1-3.137 1-.98 0-1.851-.208-2.616-.625a4.487 4.487 0 0 1-1.774-1.787c-.418-.775-.628-1.68-.628-2.717Zm17.034 2.395v2.591h-1.559c-1.111 0-1.977-.268-2.599-.804-.62-.548-.931-1.436-.931-2.663V17.28h-1.22v-2.538h1.22v-2.43h3.064v2.43h2.007v2.538H58.75v4.004c0 .298.072.512.215.643.144.131.383.197.717.197h1.093Zm3.248-8.418c-.537 0-.98-.155-1.326-.465a1.574 1.574 0 0 1-.502-1.18c0-.476.168-.87.502-1.18.347-.321.789-.482 1.326-.482.526 0 .956.16 1.29.483.347.31.52.703.52 1.18 0 .464-.173.857-.52 1.179-.334.31-.764.465-1.29.465Zm1.524 1.036v9.973H62.48v-9.973h3.065Zm6.773 10.116c-.98 0-1.864-.208-2.653-.625a4.663 4.663 0 0 1-1.846-1.787c-.442-.775-.663-1.68-.663-2.717 0-1.025.227-1.924.681-2.699a4.6 4.6 0 0 1 1.864-1.805c.789-.417 1.673-.626 2.653-.626s1.863.209 2.652.626a4.6 4.6 0 0 1 1.864 1.805c.454.774.68 1.674.68 2.699s-.232 1.93-.698 2.717a4.603 4.603 0 0 1-1.882 1.787c-.788.417-1.673.625-2.652.625Zm0-2.645a1.97 1.97 0 0 0 1.487-.643c.418-.43.627-1.043.627-1.841 0-.799-.203-1.412-.609-1.841a1.914 1.914 0 0 0-1.47-.644c-.597 0-1.093.215-1.487.644-.394.417-.591 1.03-.591 1.84 0 .8.19 1.413.573 1.842.394.429.884.643 1.47.643Zm12.951-7.578c1.172 0 2.104.381 2.797 1.144.704.75 1.057 1.787 1.057 3.11v5.826h-3.047V19.3c0-.667-.173-1.186-.52-1.555-.346-.37-.812-.554-1.397-.554-.586 0-1.052.184-1.398.554-.347.37-.52.888-.52 1.555v5.415h-3.065v-9.973h3.065v1.323a3.16 3.16 0 0 1 1.255-1.037c.525-.262 1.117-.393 1.774-.393Z" fill="#000A2C"/><path d="m14.239 33.13-6.355-6.34c-3.51-3.5-3.537-9.148-.061-12.614 3.475-3.466 9.138-3.439 12.648.062 3.51 3.5 3.537 9.147.061 12.614l-6.293 6.276Z" fill="#F4ED0F"/><path fill-rule="evenodd" clip-rule="evenodd" d="m4.721 22.24 5.016 5.002 5.015-5.001a7.06 7.06 0 0 0 0-10.004 7.106 7.106 0 0 0-10.03 0 7.06 7.06 0 0 0 0 10.004Zm5.016 8.026 6.53-6.514a9.194 9.194 0 0 0 0-13.026c-3.606-3.598-9.454-3.598-13.061 0a9.194 9.194 0 0 0 0 13.026l6.53 6.514Z" fill="#000A2C"/><path d="M105.519 16.385c0 .726-.167 1.394-.502 2.001-.334.596-.848 1.079-1.541 1.448-.693.37-1.553.554-2.581.554h-1.9v4.504h-3.064V12.345h4.964c1.004 0 1.852.173 2.545.518.693.346 1.213.823 1.559 1.43.347.608.52 1.305.52 2.092Zm-4.857 1.572c.586 0 1.022-.137 1.309-.41.286-.275.43-.662.43-1.162 0-.5-.144-.888-.43-1.162-.287-.274-.723-.411-1.309-.411h-1.666v3.145h1.666Zm11.005 7.078c-.98 0-1.864-.208-2.653-.625a4.667 4.667 0 0 1-1.846-1.788c-.442-.774-.663-1.68-.663-2.716 0-1.025.227-1.925.681-2.7a4.597 4.597 0 0 1 1.864-1.804c.789-.417 1.673-.626 2.652-.626.98 0 1.864.209 2.653.626a4.603 4.603 0 0 1 1.864 1.805c.454.774.681 1.674.681 2.699 0 1.024-.233 1.93-.699 2.716a4.607 4.607 0 0 1-1.882 1.788c-.789.417-1.673.625-2.652.625Zm0-2.645a1.97 1.97 0 0 0 1.487-.643c.418-.43.627-1.043.627-1.841 0-.799-.203-1.412-.609-1.841a1.914 1.914 0 0 0-1.47-.644c-.597 0-1.093.215-1.487.644-.394.417-.591 1.03-.591 1.84 0 .799.191 1.413.573 1.842.394.428.884.643 1.47.643Zm9.923-6.059c.299-.465.711-.84 1.237-1.126.525-.286 1.141-.429 1.845-.429a4.15 4.15 0 0 1 2.241.626c.669.417 1.194 1.012 1.577 1.787.394.774.591 1.674.591 2.699 0 1.024-.197 1.93-.591 2.716-.383.775-.908 1.377-1.577 1.806a4.15 4.15 0 0 1-2.241.625c-.693 0-1.308-.143-1.845-.429a3.385 3.385 0 0 1-1.237-1.108v6.149h-3.065V14.919h3.065v1.412Zm4.373 3.557c0-.763-.215-1.359-.645-1.788a2.063 2.063 0 0 0-1.56-.66 2.1 2.1 0 0 0-1.559.66c-.418.441-.627 1.043-.627 1.806 0 .762.209 1.364.627 1.805.43.44.95.661 1.559.661.61 0 1.13-.22 1.56-.661.43-.453.645-1.06.645-1.823Zm14.601-4.969v9.973h-3.065v-1.358c-.311.44-.735.798-1.272 1.072a3.886 3.886 0 0 1-1.757.393c-.764 0-1.439-.166-2.025-.5a3.501 3.501 0 0 1-1.362-1.483c-.322-.644-.484-1.4-.484-2.27v-5.827h3.047v5.416c0 .667.173 1.185.52 1.555.346.369.812.554 1.397.554.598 0 1.07-.185 1.416-.554.347-.37.52-.888.52-1.555v-5.416h3.065Zm5.265-3.253v13.226h-3.064V11.666h3.064Zm1.612 8.222c0-1.025.191-1.925.573-2.7.395-.774.926-1.37 1.595-1.786a4.15 4.15 0 0 1 2.241-.626c.704 0 1.32.143 1.845.429.538.286.95.661 1.237 1.126v-1.412h3.065v9.973h-3.065V23.48c-.299.465-.717.84-1.254 1.126-.526.286-1.141.43-1.846.43a4.119 4.119 0 0 1-2.223-.626c-.669-.43-1.2-1.031-1.595-1.805-.382-.787-.573-1.692-.573-2.717Zm7.491.018c0-.763-.215-1.365-.645-1.806a2.04 2.04 0 0 0-1.541-.66 2.1 2.1 0 0 0-1.56.66c-.418.43-.627 1.025-.627 1.788 0 .762.209 1.37.627 1.823a2.1 2.1 0 0 0 1.56.661 2.04 2.04 0 0 0 1.541-.661c.43-.441.645-1.043.645-1.805Zm6.823-6.024c-.538 0-.98-.155-1.326-.464a1.572 1.572 0 0 1-.502-1.18c0-.477.167-.87.502-1.18.346-.321.788-.482 1.326-.482.526 0 .956.16 1.29.482.347.31.52.703.52 1.18 0 .465-.173.858-.52 1.18-.334.31-.764.464-1.29.464Zm1.523 1.037v9.973h-3.064V14.92h3.064Zm5.286 1.662a3.946 3.946 0 0 1 1.344-1.287 3.422 3.422 0 0 1 1.792-.482v3.235h-.842c-.765 0-1.339.167-1.721.5-.382.322-.573.894-.573 1.716v4.63h-3.065v-9.974h3.065v1.662Zm14.027 3.164c0 .286-.018.584-.053.893h-6.936c.048.62.245 1.097.591 1.43.359.322.795.483 1.309.483.764 0 1.296-.322 1.595-.965h3.261a4.4 4.4 0 0 1-.914 1.77c-.43.523-.973.934-1.63 1.232-.658.298-1.392.447-2.205.447-.98 0-1.852-.208-2.616-.625a4.452 4.452 0 0 1-1.792-1.788c-.431-.774-.646-1.68-.646-2.716 0-1.037.209-1.943.628-2.717a4.453 4.453 0 0 1 1.792-1.787c.764-.417 1.643-.626 2.634-.626.968 0 1.828.203 2.581.608a4.308 4.308 0 0 1 1.756 1.733c.43.751.645 1.627.645 2.628Zm-3.136-.805c0-.524-.179-.94-.538-1.25-.358-.31-.806-.465-1.344-.465-.513 0-.949.149-1.308.447-.346.297-.561.72-.645 1.268h3.835Z" fill="#000A2C"/></svg>
